icons/editor/text-color.svg

<svg width="32" height="32" viewBox="0 0 32 32" fill="none" xmlns="http://www.w3.org/2000/svg">
<path fill-rule="evenodd" clip-rule="evenodd" d="M17.1356 5.7756C16.6892 4.80559 15.3108 4.80559 14.8644 5.7756L7.59155 21.582L9.40845 22.418L11.9014 17H20.0986L22.5916 22.418L24.4084 21.582L17.1356 5.7756ZM19.1784 15L16 8.09236L12.8216 15H19.1784ZM28 25V28H4V25H28Z" fill="black"/>
</svg>

<svg width="32" height="32" viewBox="0 0 32 32" xmlns="http://www.w3.org/2000/svg">
    <path fill-rule="evenodd" d="M17.136 5.776c-.447-.97-1.825-.97-2.272 0L7.592 21.582l1.816.836L11.901 17H20.1l2.493 5.418 1.816-.836-7.272-15.806zM19.178 15L16 8.092 12.822 15h6.356zM28 25v3H4v-3h24z"/>
</svg>
